flutter/assets/jade_front_idle.svg

<svg width="178" height="90.499" version="1.1" viewBox="0 0 47.096 23.945" xml:space="preserve" xmlns="http://www.w3.org/2000/svg"><g transform="translate(-48.461 -128.57)"><g transform="matrix(.26458 0 0 .26458 48.461 128.44)" fill="#00c5ff"><path d="m1 19 3e-6 63c0 4.4183 3.5817 8 8 8h160c4.418 0 8-3.5817 8-8v-63c0-4.4183-3.582-8-8-8h-160c-4.4183 0-8 3.5817-8 8zm-1 63c2.1727e-7 4.9706 4.0294 9 9 9h160c4.971 0 9-4.0294 9-9v-63c0-4.9706-4.029-9-9-9h-160c-4.9706 0-9 4.0294-9 9z" clip-rule="evenodd" fill-rule="evenodd"/><path d="m155.46 67.814h-8.365v-1.7623h8.497c2.939 0 4.409 1.3618 4.409 4.0853 0 0.7477-0.1 1.3685-0.301 1.8625l-1.338-0.2403c0.163-0.4406 0.245-0.9346 0.245-1.482 0-0.8277-0.226-1.4419-0.678-1.8424-0.465-0.4139-1.288-0.6208-2.469-0.6208z"/><path d="m155.8 55.858v4.7863l3.994 1.4018v1.8024l-12.699-4.586v-2.1028l12.699-4.6061v1.8625zm-1.282 4.4258v-4.0653l-3.655 1.3417c-0.502 0.1736-1.275 0.4006-2.317 0.6809v0.0601c0.829 0.2003 1.595 0.4206 2.298 0.6609z"/><path d="m159.76 50.266h-12.491c-0.176-1.2549-0.264-2.4966-0.264-3.7249 0-2.4432 0.528-4.2656 1.583-5.4672 1.092-1.2817 2.612-1.9225 4.559-1.9225 2.072 0 3.718 0.6475 4.936 1.9425 1.219 1.3218 1.828 3.3178 1.828 5.9879 0 1.3218-0.05 2.3832-0.151 3.1842zm-11.285-1.7623h10.042c0.05-0.2937 0.075-0.8811 0.075-1.7623 0.013-1.8558-0.452-3.2777-1.394-4.2656-0.942-0.988-2.274-1.482-3.994-1.482-1.533-0.0133-2.732 0.4473-3.599 1.3818-0.867 0.9212-1.3 2.283-1.3 4.0854 0 0.8144 0.057 1.4953 0.17 2.0427z"/><path d="m152.48 29.621h1.356v5.2269h4.578v-5.8477h1.376v7.61h-12.699v-7.3096h1.376v5.5473h4.013z"/><path d="m13 28.001v45c0 2.7614 2.2386 5 5 5h71c2.7614 0 5-2.2386 5-5v-45c0-2.7614-2.2386-5-5-5h-71c-2.7614 0-5 2.2386-5 5zm-1 45c0 3.3137 2.6863 6 6 6h71c3.3137 0 6-2.6863 6-6v-45c0-3.3137-2.6863-6-6-6h-71c-3.3137 0-6 2.6863-6 6z" clip-rule="evenodd" fill-rule="evenodd"/><path d="m43.233 50.182c0 1.7071-1.3952 3.0909-3.1166 3.0909-1.7213 0-3.1168-1.3838-3.1168-3.0909 0-1.7072 1.3954-3.0912 3.1168-3.0912s3.1166 1.384 3.1166 3.0912z"/><path d="m60.1 44.546c0 1.4058-1.1492 2.5455-2.5666 2.5455-1.4177 0-2.5669-1.1397-2.5669-2.5455s1.1492-2.5455 2.5669-2.5455c1.4174 0 2.5666 1.1397 2.5666 2.5455z"/><path d="m52.033 43.818c-1.8333 0-2.9334 1.4544-2.9334 1.4544l-4.0335 4.7276h1.8334l3.6667-4.0003c0.7332-0.7273 1.8333-0.7273 1.8333-0.7273h2.9334v-1.4544z"/><path d="m57.165 54.728s-1.1 0-1.8333-0.7272l-3.6667-4.0003h-1.8334l4.0335 4.7275s1.1001 1.4545 2.9335 1.4545h3.2999v-1.4545z"/><path d="m65.232 47.456v5.4547l4.7668-2.5455v-0.3637z"/><path d="m42.498 49.638h23.1v1.4545h-23.1z"/><path d="m58.633 53.273h4.7668v4.7276h-4.7668z"/><path d="m108 28v45c0 2.7614 2.239 5 5 5h15c2.761 0 5-2.2386 5-5v-45c0-2.7614-2.239-5-5-5h-15c-2.761 0-5 2.2386-5 5zm-1 45c0 3.3137 2.686 6 6 6h15c3.314 0 6-2.6863 6-6v-45c0-3.3137-2.686-6-6-6h-15c-3.314 0-6 2.6863-6 6z" clip-rule="evenodd" fill-rule="evenodd"/><path d="m41.561 9.682c-0.0441 0.35719-0.061 0.72989-0.061 0.81799h-1c0-0.1342 0.0201-0.54812 0.0686-0.94059 0.0241-0.19531 0.0576-0.40571 0.1052-0.58058 0.0232-0.0855 0.0556-0.18468 0.1031-0.27536 0.0303-0.05799 0.1161-0.21193 0.2928-0.29744l1.9156-1.1051 0.0078-0.00387c0.0031-0.00273 0.0113-0.01053 0.0236-0.02689 0.023-0.03066 0.0496-0.07759 0.0747-0.14033 0.0402-0.10067 0.0632-0.20734 0.0716-0.28747l-0.663-2.1362v-0.07581c0-0.00971 0-0.01978-1e-4 -0.03018-8e-4 -0.20738-0.0021-0.54511 0.2947-0.84191l0.9629-0.96293c0.2968-0.29679 0.6346-0.29548 0.842-0.29468 0.0104 4e-5 0.0204 8e-5 0.0301 8e-5h0.0656l2.2727 0.60612c0.0034-4.3e-4 0.0076-0.00102 0.0125-0.00185 0.0368-0.00621 0.0896-0.02121 0.1497-0.04652 0.0595-0.02503 0.1136-0.05492 0.1543-0.08337 0.0221-0.01539 0.0347-0.02654 0.0408-0.03216l1.1017-1.9098 9e-3 -0.01347c0.1016-0.15239 0.2295-0.2939 0.4047-0.39123 0.1785-0.099187 0.3614-0.12774 0.5299-0.12774h1.2592c0.2808 0 0.7771 0.093883 0.9726 0.58285l1.0725 1.859c6e-3 0.00548 0.0182 0.01602 0.0391 0.0304 0.0402 0.02761 0.0947 0.05712 0.1571 0.08205 0.0623 0.02495 0.122 0.04115 0.1708 0.04847 0.0374 0.00561 0.0569 0.00431 0.0612 0.00404l2.1235-0.58584c0.1925-0.06147 0.3923-0.07022 0.5891-0.00462 0.1885 0.06286 0.3277 0.17903 0.4269 0.27818l0.9629 0.96293c0.2968 0.29679 0.2955 0.63455 0.2947 0.84193-1e-4 0.01039-1e-4 0.02046-1e-4 0.03018v0.06771l-0.6068 2.1997c-3e-4 0.00433-0.0016 0.02382 4e-3 0.06126 0.0073 0.04879 0.0235 0.10852 0.0485 0.17089 0.0249 0.06231 0.0544 0.11687 0.082 0.15701 0.0143 0.02086 0.0249 0.03304 0.0303 0.03899l1.8723 1.0801c0.1767 0.08551 0.2625 0.23944 0.2928 0.29743 0.0475 0.09068 0.0799 0.18986 0.1031 0.27537 0.0476 0.17486 0.0811 0.38527 0.1052 0.58058 0.0485 0.39246 0.0686 0.80639 0.0686 0.94059h-1c0-0.0881-0.0169-0.4608-0.061-0.818-0.0222-0.17951-0.0489-0.33468-0.0778-0.44093-1e-3 -0.00367-0.0019-0.00718-0.0029-0.01054l-1.8443-1.064-0.0134-0.00892c-0.2356-0.15691-0.3949-0.43516-0.4834-0.65627-0.0894-0.22345-0.1695-0.54575-0.0949-0.84404l0.0029-0.01175 0.5746-2.0822c-2e-4 -0.02421-6e-4 -0.04418-0.0015-0.06255-9e-4 -0.01851-0.0021-0.03077-0.0032-0.03859l-0.9597-0.95972v0c-0.0091-0.00908-0.0168-0.01637-0.0233-0.02215l-2.1685 0.59826c-0.2983 0.07462-0.6207-0.00566-0.8441-0.09503-0.2211-0.08846-0.4993-0.24776-0.6562-0.4832l-9e-3 -0.01347-1.1432-1.9816c-0.0161-0.00266-0.0367-0.00449-0.0614-0.00449h-1.2592c-0.0262 0-0.04 0.00206-0.0456 0.00317-0.0066 0.00552-0.0231 0.02145-0.049 0.05878l-1.11 1.9242-9e-3 0.01347c-0.1555 0.23328-0.4313 0.39245-0.6387 0.47978-0.1158 0.04877-0.2435 0.08933-0.3711 0.1109-0.1124 0.01898-0.2727 0.03178-0.4346-0.01734l-2.1477-0.57278c-0.0252 2e-4 -0.0458 6.3e-4 -0.0647 0.00155-0.0185 9e-4 -0.0308 0.00212-0.0386 0.00315l-0.9566 0.95658c-1e-3 0.00781-0.0023 0.02008-0.0032 0.03859-8e-4 0.01633-0.0012 0.03392-0.0014 0.05463l0.6664 2.1473v0.07581c0 0.21648-0.051 0.48302-0.1469 0.72267-0.088 0.22-0.255 0.5205-0.5581 0.67936l-1.82 1.0499c-1e-3 0.00336-0.0019 0.00688-0.0029 0.01054-0.0289 0.10626-0.0556 0.26142-0.0778 0.44094z" clip-rule="evenodd" fill-rule="evenodd"/></g></g></svg>

<svg width="178" height="91" viewBox="0 0 178 91" fill="none" xmlns="http://www.w3.org/2000/svg">
<path fill-rule="evenodd" clip-rule="evenodd" d="M0.999997 19L1 82C1 86.4183 4.58172 90 9 90L169 90C173.418 90 177 86.4183 177 82L177 19C177 14.5817 173.418 11 169 11L9 11C4.58172 11 0.999997 14.5817 0.999997 19ZM-3.93402e-07 82C-1.76132e-07 86.9706 4.02944 91 9 91L169 91C173.971 91 178 86.9706 178 82L178 19C178 14.0294 173.971 10 169 10L9 10C4.02943 10 -3.36449e-06 14.0294 -3.14722e-06 19L-3.93402e-07 82Z" fill="#00C5FF"/>
<path d="M155.459 67.8145L147.094 67.8145L147.094 66.0522L155.591 66.0522C158.53 66.0522 160 67.414 160 70.1375C160 70.8852 159.9 71.506 159.699 72L158.361 71.7597C158.524 71.3191 158.606 70.8251 158.606 70.2777C158.606 69.45 158.38 68.8358 157.928 68.4353C157.463 68.0214 156.64 67.8145 155.459 67.8145Z" fill="#00C5FF"/>
<path d="M155.799 55.8582L155.799 60.6445L159.793 62.0463L159.793 63.8487L147.094 59.2627L147.094 57.1599L159.793 52.5538L159.793 54.4163L155.799 55.8582ZM154.517 60.284L154.517 56.2187L150.862 57.5604C150.36 57.734 149.587 57.961 148.545 58.2413L148.545 58.3014C149.374 58.5017 150.14 58.722 150.843 58.9623L154.517 60.284Z" fill="#00C5FF"/>
<path d="M159.755 50.2665L147.264 50.2665C147.088 49.0116 147 47.7699 147 46.5416C147 44.0984 147.528 42.276 148.583 41.0744C149.675 39.7927 151.195 39.1519 153.142 39.1519C155.214 39.1519 156.86 39.7994 158.078 41.0944C159.297 42.4162 159.906 44.4122 159.906 47.0823C159.906 48.4041 159.856 49.4655 159.755 50.2665ZM148.47 48.5042L158.512 48.5042C158.562 48.2105 158.587 47.6231 158.587 46.7419C158.6 44.8861 158.135 43.4642 157.193 42.4763C156.251 41.4883 154.919 40.9943 153.199 40.9943C151.666 40.981 150.467 41.4416 149.6 42.3761C148.733 43.2973 148.3 44.6591 148.3 46.4615C148.3 47.2759 148.357 47.9568 148.47 48.5042Z" fill="#00C5FF"/>
<path d="M152.483 29.6208L153.839 29.6208L153.839 34.8477L158.417 34.8477L158.417 29L159.793 29L159.793 36.61L147.094 36.61L147.094 29.3004L148.47 29.3004L148.47 34.8477L152.483 34.8477L152.483 29.6208Z" fill="#00C5FF"/>
<path fill-rule="evenodd" clip-rule="evenodd" d="M13 28.001L13 73.001C13 75.7624 15.2386 78.001 18 78.001L89 78.001C91.7614 78.001 94 75.7624 94 73.001L94 28.001C94 25.2396 91.7614 23.001 89 23.001L18 23.001C15.2386 23.001 13 25.2396 13 28.001ZM12 73.001C12 76.3147 14.6863 79.001 18 79.001L89 79.001C92.3137 79.001 95 76.3147 95 73.001L95 28.001C95 24.6873 92.3137 22.001 89 22.001L18 22.001C14.6863 22.001 12 24.6873 12 28.001L12 73.001Z" fill="#00C5FF"/>
<path d="M43.2334 50.182C43.2334 51.8891 41.8382 53.2729 40.1168 53.2729C38.3955 53.2729 37 51.8891 37 50.182C37 48.4748 38.3954 47.0908 40.1168 47.0908C41.8382 47.0908 43.2334 48.4748 43.2334 50.182Z" fill="#00C5FF"/>
<path d="M60.1003 44.5465C60.1003 45.9523 58.9511 47.092 57.5337 47.092C56.116 47.092 54.9668 45.9523 54.9668 44.5465C54.9668 43.1407 56.116 42.001 57.5337 42.001C58.9511 42.001 60.1003 43.1407 60.1003 44.5465Z" fill="#00C5FF"/>
<path d="M52.0333 43.8184C50.2 43.8184 49.0999 45.2728 49.0999 45.2728L45.0664 50.0004L46.8998 50.0004L50.5665 46.0001C51.2997 45.2728 52.3998 45.2728 52.3998 45.2728L55.3332 45.2728L55.3332 43.8184L52.0333 43.8184Z" fill="#00C5FF"/>
<path d="M57.1654 54.7275C57.1654 54.7275 56.0654 54.7275 55.3321 54.0003L51.6654 50L49.832 50L53.8655 54.7275C53.8655 54.7275 54.9656 56.182 56.799 56.182L60.0989 56.182L60.0989 54.7275L57.1654 54.7275Z" fill="#00C5FF"/>
<path d="M65.2324 47.4561L65.2324 52.9108L69.9992 50.3653L69.9992 50.0016L65.2324 47.4561Z" fill="#00C5FF"/>
<path d="M42.498 49.6377L65.5983 49.6377L65.5983 51.0922L42.498 51.0922L42.498 49.6377Z" fill="#00C5FF"/>
<path d="M58.6328 53.2734L63.3996 53.2734L63.3996 58.001L58.6328 58.001L58.6328 53.2734Z" fill="#00C5FF"/>
<path fill-rule="evenodd" clip-rule="evenodd" d="M108 28L108 73C108 75.7614 110.239 78 113 78L128 78C130.761 78 133 75.7614 133 73L133 28C133 25.2386 130.761 23 128 23L113 23C110.239 23 108 25.2386 108 28ZM107 73C107 76.3137 109.686 79 113 79L128 79C131.314 79 134 76.3137 134 73L134 28C134 24.6863 131.314 22 128 22L113 22C109.686 22 107 24.6863 107 28L107 73Z" fill="#00C5FF"/>
<path fill-rule="evenodd" clip-rule="evenodd" d="M41.561 9.68201C41.5169 10.0392 41.5 10.4119 41.5 10.5L40.5 10.5C40.5 10.3658 40.5201 9.95188 40.5686 9.55941C40.5927 9.3641 40.6262 9.1537 40.6738 8.97883C40.697 8.89333 40.7294 8.79415 40.7769 8.70347C40.8072 8.64548 40.893 8.49154 41.0697 8.40603L42.9853 7.30093L42.9931 7.29706C42.9962 7.29433 43.0044 7.28653 43.0167 7.27017C43.0397 7.23951 43.0663 7.19258 43.0914 7.12984C43.1316 7.02917 43.1546 6.9225 43.163 6.84237L42.5 4.70621L42.5 4.6304C42.5 4.62069 42.5 4.61062 42.4999 4.60022C42.4991 4.39284 42.4978 4.05511 42.7946 3.75831L43.7575 2.79538C44.0543 2.49859 44.3921 2.4999 44.5995 2.5007C44.6099 2.50074 44.6199 2.50078 44.6296 2.50078L44.6952 2.50078L46.9679 3.1069C46.9713 3.10647 46.9755 3.10588 46.9804 3.10505C47.0172 3.09884 47.07 3.08384 47.1301 3.05853C47.1896 3.0335 47.2437 3.00361 47.2844 2.97516C47.3065 2.95977 47.3191 2.94862 47.3252 2.943L48.4269 1.03323L48.4359 1.01976C48.5375 0.867366 48.6654 0.725863 48.8406 0.628529C49.0191 0.529342 49.202 0.500789 49.3705 0.500789L50.6297 0.500789C50.9105 0.500789 51.4068 0.594672 51.6023 1.08364L52.6748 2.94268C52.6808 2.94816 52.693 2.9587 52.7139 2.97308C52.7541 3.00069 52.8086 3.0302 52.871 3.05513C52.9333 3.08008 52.993 3.09628 53.0418 3.1036C53.0792 3.10921 53.0987 3.10791 53.103 3.10764L55.2265 2.5218C55.419 2.46033 55.6188 2.45158 55.8156 2.51718C56.0041 2.58004 56.1433 2.69621 56.2425 2.79536L57.2054 3.75829C57.5022 4.05508 57.5009 4.39284 57.5001 4.60022C57.5 4.61061 57.5 4.62068 57.5 4.6304L57.5 4.69811L56.8932 6.89779C56.8929 6.90212 56.8916 6.92161 56.8972 6.95905C56.9045 7.00784 56.9207 7.06757 56.9457 7.12994C56.9706 7.19225 57.0001 7.24681 57.0277 7.28695C57.042 7.30781 57.0526 7.31999 57.058 7.32594L58.9303 8.40603C59.107 8.49154 59.1928 8.64547 59.2231 8.70346C59.2706 8.79414 59.303 8.89332 59.3262 8.97883C59.3738 9.15369 59.4073 9.3641 59.4314 9.55941C59.4799 9.95187 59.5 10.3658 59.5 10.5L58.5 10.5C58.5 10.4119 58.4831 10.0392 58.439 9.682C58.4168 9.50249 58.3901 9.34732 58.3612 9.24107C58.3602 9.2374 58.3593 9.23389 58.3583 9.23053L56.514 8.16654L56.5006 8.15762C56.265 8.00071 56.1057 7.72246 56.0172 7.50135C55.9278 7.2779 55.8477 6.9556 55.9223 6.65731L55.9252 6.64556L56.4998 4.56337C56.4996 4.53916 56.4992 4.51919 56.4983 4.50082C56.4974 4.48231 56.4962 4.47005 56.4951 4.46223L55.5354 3.50251C55.5354 3.50251 55.5354 3.50252 55.5354 3.50251C55.5263 3.49343 55.5186 3.48614 55.5121 3.48036L53.3436 4.07862C53.0453 4.15324 52.7229 4.07296 52.4995 3.98359C52.2784 3.89513 52.0002 3.73583 51.8433 3.50039L51.8343 3.48692L50.6911 1.50528C50.675 1.50262 50.6544 1.50079 50.6297 1.50079L49.3705 1.50079C49.3443 1.50079 49.3305 1.50285 49.3249 1.50396C49.3183 1.50948 49.3018 1.52541 49.2759 1.56274L48.1659 3.48692L48.1569 3.50039C48.0014 3.73367 47.7256 3.89284 47.5182 3.98017C47.4024 4.02894 47.2747 4.0695 47.1471 4.09107C47.0347 4.11005 46.8744 4.12285 46.7125 4.07373L44.5648 3.50095C44.5396 3.50115 44.519 3.50158 44.5001 3.5025C44.4816 3.5034 44.4693 3.50462 44.4615 3.50565L43.5049 4.46223C43.5039 4.47004 43.5026 4.48231 43.5017 4.50082C43.5009 4.51715 43.5005 4.53474 43.5003 4.55545L44.1667 6.70277L44.1667 6.77858C44.1667 6.99506 44.1157 7.2616 44.0198 7.50125C43.9318 7.72125 43.7648 8.02175 43.4617 8.18061L41.6417 9.23053C41.6407 9.23389 41.6398 9.23741 41.6388 9.24107C41.6099 9.34733 41.5832 9.50249 41.561 9.68201Z" fill="#00C5FF"/>
</svg>
